X:74
T: WIR SIND DREI KOENIGE DER WELT
N: B0560
O: Europa, Mitteleuropa, Deutschland
R: Studenten -, Trink - Lied
M: 4/4
L: 1/16
K: F
F2A2 | c6A2B3AB2c2 | A8z4
F4 | A6A2G2c2B2E2 | G4F4z4
F2A2 | c6A2F6_E2 | D2F2B2d2f4e2
d2 | c6A2c3BA2G2 | G4F4z4
A4 | G6A2c3BA2G2 | F8z4
A4 | G6A2c3BA2G2 | F8z4
F2A2 | c6A2F6_E2 | D2F2B2d2f4e2
d2 | c6A2c3BA2G2 | F8z4

